img/icones/Logo.svg

<svg width="372" height="36" viewBox="0 0 372 36" fill="none" xmlns="http://www.w3.org/2000/svg">
<path d="M3.25781 0.875H9.21094L17.9766 25.9297L26.7422 0.875H32.6953L20.3672 35H15.5859L3.25781 0.875ZM0.046875 0.875H5.97656L7.05469 25.2969V35H0.046875V0.875ZM29.9766 0.875H35.9297V35H28.8984V25.2969L29.9766 0.875Z" fill="#141414"/>
<path d="M53.0859 14.7969L45.8203 35H39L49.7812 7.69531H54.4219L53.0859 14.7969ZM60.2578 35L52.8516 14.7969L51.4922 7.69531H56.2031L67.0547 35H60.2578ZM60.1172 24.8516V29.6562H45.0234V24.8516H60.1172Z" fill="#141414"/>
<path d="M69.3984 7.69531H80.8125C82.5 7.69531 84.0234 7.875 85.3828 8.23438C86.7422 8.57812 87.8984 9.09375 88.8516 9.78125C89.8203 10.4688 90.5625 11.3281 91.0781 12.3594C91.5938 13.375 91.8516 14.5547 91.8516 15.8984C91.8516 17.4922 91.5859 18.8203 91.0547 19.8828C90.5234 20.9453 89.7891 21.8125 88.8516 22.4844C87.9141 23.1562 86.8281 23.7188 85.5938 24.1719L83.3438 25.4844H73.6406L73.5938 20.2109H80.8594C81.7969 20.2109 82.5781 20.0703 83.2031 19.7891C83.8281 19.4922 84.2969 19.0703 84.6094 18.5234C84.9219 17.9766 85.0781 17.3281 85.0781 16.5781C85.0781 15.8125 84.9141 15.1641 84.5859 14.6328C84.2578 14.1016 83.7734 13.6953 83.1328 13.4141C82.5078 13.1328 81.7344 12.9922 80.8125 12.9922H76.1719V35H69.3984V7.69531ZM85.5938 35L79.0547 22.9531L86.2266 22.8828L92.8828 34.7188V35H85.5938Z" fill="#141414"/>
<path d="M113.109 25.6953H119.883C119.773 27.6328 119.219 29.3281 118.219 30.7812C117.219 32.2344 115.836 33.3672 114.07 34.1797C112.305 34.9766 110.227 35.375 107.836 35.375C105.883 35.375 104.141 35.0703 102.609 34.4609C101.094 33.8516 99.8047 32.9688 98.7422 31.8125C97.6797 30.6562 96.8672 29.2578 96.3047 27.6172C95.7578 25.9766 95.4844 24.1172 95.4844 22.0391V20.6797C95.4844 18.6016 95.7734 16.7422 96.3516 15.1016C96.9297 13.4453 97.7578 12.0391 98.8359 10.8828C99.9141 9.72656 101.203 8.84375 102.703 8.23438C104.203 7.60938 105.883 7.29688 107.742 7.29688C110.273 7.29688 112.406 7.72656 114.141 8.58594C115.891 9.44531 117.242 10.625 118.195 12.125C119.164 13.6094 119.734 15.3047 119.906 17.2109H113.156C113.109 16.3359 112.906 15.5547 112.547 14.8672C112.188 14.1641 111.617 13.6094 110.836 13.2031C110.07 12.7969 109.039 12.5938 107.742 12.5938C106.836 12.5938 106.039 12.7578 105.352 13.0859C104.664 13.4141 104.086 13.9141 103.617 14.5859C103.164 15.2578 102.82 16.1016 102.586 17.1172C102.352 18.1172 102.234 19.2969 102.234 20.6562V22.0391C102.234 23.4141 102.336 24.6094 102.539 25.625C102.758 26.6406 103.094 27.4844 103.547 28.1562C104 28.8125 104.578 29.3047 105.281 29.6328C106 29.9609 106.852 30.125 107.836 30.125C108.961 30.125 109.906 29.9688 110.672 29.6562C111.438 29.3281 112.023 28.8359 112.43 28.1797C112.836 27.5234 113.062 26.6953 113.109 25.6953Z" fill="#141414"/>
<path d="M148.031 20.7969V21.9219C148.031 24 147.719 25.8672 147.094 27.5234C146.484 29.1797 145.617 30.5938 144.492 31.7656C143.367 32.9375 142.023 33.8359 140.461 34.4609C138.914 35.0703 137.203 35.375 135.328 35.375C133.453 35.375 131.734 35.0703 130.172 34.4609C128.625 33.8359 127.281 32.9375 126.141 31.7656C125 30.5938 124.117 29.1797 123.492 27.5234C122.867 25.8672 122.555 24 122.555 21.9219V20.7969C122.555 18.7031 122.859 16.8359 123.469 15.1953C124.094 13.5391 124.969 12.125 126.094 10.9531C127.234 9.76562 128.578 8.86719 130.125 8.25781C131.688 7.63281 133.406 7.32031 135.281 7.32031C137.156 7.32031 138.867 7.63281 140.414 8.25781C141.977 8.86719 143.328 9.76562 144.469 10.9531C145.609 12.125 146.484 13.5391 147.094 15.1953C147.719 16.8359 148.031 18.7031 148.031 20.7969ZM141.258 21.9219V20.75C141.258 19.4375 141.117 18.2812 140.836 17.2812C140.57 16.2656 140.18 15.4141 139.664 14.7266C139.164 14.0234 138.539 13.4922 137.789 13.1328C137.055 12.7578 136.219 12.5703 135.281 12.5703C134.328 12.5703 133.477 12.7578 132.727 13.1328C131.992 13.4922 131.375 14.0234 130.875 14.7266C130.375 15.4141 129.992 16.2656 129.727 17.2812C129.477 18.2812 129.352 19.4375 129.352 20.75V21.9219C129.352 23.2188 129.477 24.375 129.727 25.3906C129.992 26.4062 130.383 27.2734 130.898 27.9922C131.414 28.6953 132.039 29.2344 132.773 29.6094C133.523 29.9688 134.375 30.1484 135.328 30.1484C136.266 30.1484 137.102 29.9688 137.836 29.6094C138.57 29.2344 139.188 28.6953 139.688 27.9922C140.203 27.2734 140.594 26.4062 140.859 25.3906C141.125 24.375 141.258 23.2188 141.258 21.9219Z" fill="#141414"/>
<path d="M167.156 27.6875C167.156 27.25 167.07 26.8516 166.898 26.4922C166.727 26.1172 166.438 25.7812 166.031 25.4844C165.641 25.1875 165.109 24.9062 164.438 24.6406C163.766 24.375 162.93 24.125 161.93 23.8906C160.211 23.4844 158.719 23.0391 157.453 22.5547C156.203 22.0547 155.164 21.4844 154.336 20.8438C153.523 20.1875 152.914 19.4062 152.508 18.5C152.102 17.5938 151.898 16.5312 151.898 15.3125C151.898 14.1406 152.156 13.0625 152.672 12.0781C153.188 11.0938 153.914 10.25 154.852 9.54688C155.789 8.84375 156.898 8.29688 158.18 7.90625C159.461 7.51562 160.859 7.32031 162.375 7.32031C164.578 7.32031 166.523 7.66406 168.211 8.35156C169.914 9.03906 171.242 10.0156 172.195 11.2812C173.148 12.5312 173.625 14.0391 173.625 15.8047H166.875C166.875 15.1484 166.695 14.5469 166.336 14C165.992 13.4531 165.492 13.0156 164.836 12.6875C164.18 12.3438 163.367 12.1719 162.398 12.1719C161.461 12.1719 160.688 12.3203 160.078 12.6172C159.469 12.8984 159.016 13.2656 158.719 13.7188C158.438 14.1562 158.297 14.6094 158.297 15.0781C158.297 15.4688 158.383 15.8281 158.555 16.1562C158.742 16.4844 159.031 16.7891 159.422 17.0703C159.828 17.3359 160.352 17.5938 160.992 17.8438C161.648 18.0781 162.438 18.3125 163.359 18.5469C165.078 18.9219 166.57 19.3672 167.836 19.8828C169.117 20.3828 170.18 20.9844 171.023 21.6875C171.883 22.3906 172.523 23.2266 172.945 24.1953C173.367 25.1484 173.578 26.25 173.578 27.5C173.578 28.75 173.32 29.8672 172.805 30.8516C172.305 31.8203 171.578 32.6406 170.625 33.3125C169.688 33.9844 168.555 34.5 167.227 34.8594C165.914 35.2031 164.445 35.375 162.82 35.375C161.367 35.375 159.938 35.2031 158.531 34.8594C157.125 34.5156 155.852 33.9844 154.711 33.2656C153.57 32.5312 152.656 31.5938 151.969 30.4531C151.297 29.3125 150.961 27.9453 150.961 26.3516H157.734C157.734 27.1016 157.844 27.7422 158.062 28.2734C158.297 28.8047 158.641 29.2422 159.094 29.5859C159.562 29.9141 160.133 30.1562 160.805 30.3125C161.492 30.4688 162.281 30.5469 163.172 30.5469C164.172 30.5469 164.961 30.4062 165.539 30.125C166.133 29.8281 166.547 29.4609 166.781 29.0234C167.031 28.5859 167.156 28.1406 167.156 27.6875Z" fill="#141414"/>
<path d="M191.273 0.875H202.57C205.133 0.875 207.297 1.26562 209.062 2.04688C210.844 2.82812 212.195 3.98438 213.117 5.51562C214.055 7.03125 214.523 8.89844 214.523 11.1172C214.523 12.6797 214.203 14.1094 213.562 15.4062C212.938 16.6875 212.031 17.7812 210.844 18.6875C209.672 19.5781 208.266 20.2422 206.625 20.6797L205.359 21.1719H194.742L194.695 17.4922H202.711C204.336 17.4922 205.688 17.2109 206.766 16.6484C207.844 16.0703 208.656 15.2969 209.203 14.3281C209.75 13.3594 210.023 12.2891 210.023 11.1172C210.023 9.80469 209.766 8.65625 209.25 7.67188C208.734 6.6875 207.922 5.92969 206.812 5.39844C205.719 4.85156 204.305 4.57812 202.57 4.57812H195.797V35H191.273V0.875ZM211.219 35L202.922 19.5312L207.633 19.5078L216.047 34.7188V35H211.219Z" fill="#141414"/>
<path d="M243.023 20.5859V22.1328C243.023 24.1953 242.742 26.0469 242.18 27.6875C241.617 29.3125 240.812 30.7031 239.766 31.8594C238.719 33 237.461 33.875 235.992 34.4844C234.539 35.0781 232.914 35.375 231.117 35.375C229.352 35.375 227.734 35.0781 226.266 34.4844C224.812 33.875 223.547 33 222.469 31.8594C221.406 30.7031 220.586 29.3125 220.008 27.6875C219.43 26.0469 219.141 24.1953 219.141 22.1328V20.5859C219.141 18.5234 219.43 16.6797 220.008 15.0547C220.586 13.4141 221.398 12.0156 222.445 10.8594C223.508 9.70312 224.766 8.82812 226.219 8.23438C227.688 7.625 229.305 7.32031 231.07 7.32031C232.883 7.32031 234.516 7.625 235.969 8.23438C237.438 8.82812 238.695 9.70312 239.742 10.8594C240.805 12.0156 241.617 13.4141 242.18 15.0547C242.742 16.6797 243.023 18.5234 243.023 20.5859ZM238.734 22.1328V20.5391C238.734 18.9922 238.562 17.625 238.219 16.4375C237.875 15.25 237.375 14.25 236.719 13.4375C236.062 12.625 235.258 12.0078 234.305 11.5859C233.352 11.1641 232.273 10.9531 231.07 10.9531C229.914 10.9531 228.867 11.1641 227.93 11.5859C226.992 12.0078 226.188 12.625 225.516 13.4375C224.859 14.25 224.352 15.25 223.992 16.4375C223.633 17.625 223.453 18.9922 223.453 20.5391V22.1328C223.453 23.6797 223.633 25.0547 223.992 26.2578C224.352 27.4453 224.867 28.4531 225.539 29.2812C226.211 30.0938 227.016 30.7109 227.953 31.1328C228.906 31.5547 229.961 31.7656 231.117 31.7656C232.336 31.7656 233.414 31.5547 234.352 31.1328C235.289 30.7109 236.086 30.0938 236.742 29.2812C237.398 28.4531 237.891 27.4453 238.219 26.2578C238.562 25.0547 238.734 23.6797 238.734 22.1328Z" fill="#141414"/>
<path d="M259.219 22.5547H251.742L251.695 19.2734H258.375C259.5 19.2734 260.469 19.125 261.281 18.8281C262.094 18.5156 262.719 18.0703 263.156 17.4922C263.594 16.8984 263.812 16.1797 263.812 15.3359C263.812 14.3984 263.594 13.6328 263.156 13.0391C262.719 12.4297 262.07 11.9844 261.211 11.7031C260.367 11.4219 259.32 11.2812 258.07 11.2812H252.891V35H248.555V7.69531H258.07C259.617 7.69531 261.008 7.84375 262.242 8.14062C263.477 8.4375 264.531 8.89062 265.406 9.5C266.297 10.1094 266.977 10.8828 267.445 11.8203C267.914 12.7578 268.148 13.8672 268.148 15.1484C268.148 16.2578 267.852 17.2734 267.258 18.1953C266.664 19.1016 265.812 19.8438 264.703 20.4219C263.594 20.9844 262.25 21.3203 260.672 21.4297L259.219 22.5547ZM259.008 35H250.195L252.422 31.4375H259.008C260.211 31.4375 261.219 31.2656 262.031 30.9219C262.859 30.5781 263.484 30.0859 263.906 29.4453C264.344 28.8047 264.562 28.0391 264.562 27.1484C264.562 26.2266 264.375 25.4219 264 24.7344C263.641 24.0469 263.062 23.5156 262.266 23.1406C261.484 22.75 260.469 22.5547 259.219 22.5547H253.617L253.641 19.2734H261.164L262.102 20.5156C263.602 20.5625 264.852 20.9062 265.852 21.5469C266.867 22.1719 267.633 22.9844 268.148 23.9844C268.664 24.9688 268.922 26.0312 268.922 27.1719C268.922 28.4688 268.688 29.6094 268.219 30.5938C267.766 31.5625 267.102 32.375 266.227 33.0312C265.367 33.6875 264.328 34.1797 263.109 34.5078C261.891 34.8359 260.523 35 259.008 35Z" fill="#141414"/>
<path d="M293.32 31.4375V35H277.758V31.4375H293.32ZM278.812 7.69531V35H274.477V7.69531H278.812ZM291.281 19.1094V22.6484H277.758V19.1094H291.281ZM293.18 7.69531V11.2812H277.758V7.69531H293.18Z" fill="#141414"/>
<path d="M297.844 7.69531H307.828C309.484 7.69531 310.961 7.88281 312.258 8.25781C313.555 8.61719 314.648 9.14844 315.539 9.85156C316.43 10.5547 317.102 11.4219 317.555 12.4531C318.023 13.4844 318.258 14.6719 318.258 16.0156C318.258 17.3594 317.984 18.5547 317.438 19.6016C316.906 20.6328 316.133 21.5078 315.117 22.2266C314.117 22.9297 312.922 23.4688 311.531 23.8438L310.242 24.4766H301.008L300.961 20.9141H307.945C309.273 20.9141 310.375 20.7109 311.25 20.3047C312.125 19.8828 312.781 19.3203 313.219 18.6172C313.672 17.8984 313.898 17.0938 313.898 16.2031C313.898 15.2188 313.688 14.3594 313.266 13.625C312.844 12.8906 312.18 12.3203 311.273 11.9141C310.383 11.4922 309.234 11.2812 307.828 11.2812H302.203V35H297.844V7.69531ZM314.836 35L307.805 22.8359L312.375 22.8125L319.5 34.7656V35H314.836Z" fill="#141414"/>
<path d="M334.594 7.69531V35H330.281V7.69531H334.594ZM343.945 7.69531V11.2812H320.977V7.69531H343.945Z" fill="#141414"/>
<path d="M371.086 20.5859V22.1328C371.086 24.1953 370.805 26.0469 370.242 27.6875C369.68 29.3125 368.875 30.7031 367.828 31.8594C366.781 33 365.523 33.875 364.055 34.4844C362.602 35.0781 360.977 35.375 359.18 35.375C357.414 35.375 355.797 35.0781 354.328 34.4844C352.875 33.875 351.609 33 350.531 31.8594C349.469 30.7031 348.648 29.3125 348.07 27.6875C347.492 26.0469 347.203 24.1953 347.203 22.1328V20.5859C347.203 18.5234 347.492 16.6797 348.07 15.0547C348.648 13.4141 349.461 12.0156 350.508 10.8594C351.57 9.70312 352.828 8.82812 354.281 8.23438C355.75 7.625 357.367 7.32031 359.133 7.32031C360.945 7.32031 362.578 7.625 364.031 8.23438C365.5 8.82812 366.758 9.70312 367.805 10.8594C368.867 12.0156 369.68 13.4141 370.242 15.0547C370.805 16.6797 371.086 18.5234 371.086 20.5859ZM366.797 22.1328V20.5391C366.797 18.9922 366.625 17.625 366.281 16.4375C365.938 15.25 365.438 14.25 364.781 13.4375C364.125 12.625 363.32 12.0078 362.367 11.5859C361.414 11.1641 360.336 10.9531 359.133 10.9531C357.977 10.9531 356.93 11.1641 355.992 11.5859C355.055 12.0078 354.25 12.625 353.578 13.4375C352.922 14.25 352.414 15.25 352.055 16.4375C351.695 17.625 351.516 18.9922 351.516 20.5391V22.1328C351.516 23.6797 351.695 25.0547 352.055 26.2578C352.414 27.4453 352.93 28.4531 353.602 29.2812C354.273 30.0938 355.078 30.7109 356.016 31.1328C356.969 31.5547 358.023 31.7656 359.18 31.7656C360.398 31.7656 361.477 31.5547 362.414 31.1328C363.352 30.7109 364.148 30.0938 364.805 29.2812C365.461 28.4531 365.953 27.4453 366.281 26.2578C366.625 25.0547 366.797 23.6797 366.797 22.1328Z" fill="#141414"/>
</svg>

<svg width="372" height="36" fill="none" xmlns="http://www.w3.org/2000/svg"><path d="M3.258.875H9.21l8.766 25.055L26.742.875h5.953L20.367 35h-4.781L3.258.875Zm-3.211 0h5.93l1.078 24.422V35H.047V.875Zm29.93 0h5.953V35h-7.032v-9.703L29.977.875ZM53.086 14.797 45.82 35H39L49.781 7.695h4.64l-1.335 7.102ZM60.258 35l-7.406-20.203-1.36-7.102h4.711L67.055 35h-6.797Zm-.14-10.148v4.804H45.022v-4.804h15.094ZM69.398 7.695h11.415c1.687 0 3.21.18 4.57.54 1.36.343 2.515.859 3.469 1.546a6.92 6.92 0 0 1 2.226 2.578c.516 1.016.774 2.196.774 3.54 0 1.593-.266 2.921-.797 3.984a6.993 6.993 0 0 1-2.203 2.601c-.938.672-2.024 1.235-3.258 1.688l-2.25 1.312H73.64l-.047-5.273h7.265c.938 0 1.72-.14 2.344-.422.625-.297 1.094-.719 1.406-1.266.313-.546.47-1.195.47-1.945 0-.765-.165-1.414-.493-1.945-.328-.531-.813-.938-1.453-1.219-.625-.281-1.399-.422-2.32-.422h-4.641V35h-6.774V7.695ZM85.594 35l-6.54-12.047 7.173-.07 6.656 11.836V35h-7.29ZM113.109 25.695h6.774c-.11 1.938-.664 3.633-1.664 5.086-1 1.453-2.383 2.586-4.149 3.399-1.765.797-3.843 1.195-6.234 1.195-1.953 0-3.695-.305-5.227-.914-1.515-.61-2.804-1.492-3.867-2.648-1.062-1.157-1.875-2.555-2.437-4.196-.547-1.64-.82-3.5-.82-5.578v-1.36c0-2.077.288-3.937.867-5.577.578-1.657 1.406-3.063 2.484-4.22a10.749 10.749 0 0 1 3.867-2.648c1.5-.625 3.18-.937 5.039-.937 2.531 0 4.664.43 6.399 1.289 1.75.86 3.101 2.039 4.054 3.539.969 1.484 1.539 3.18 1.711 5.086h-6.75c-.047-.875-.25-1.656-.609-2.344-.359-.703-.93-1.258-1.711-1.664-.766-.406-1.797-.61-3.094-.61-.906 0-1.703.165-2.39.493-.688.328-1.266.828-1.735 1.5-.453.672-.797 1.516-1.031 2.531-.234 1-.352 2.18-.352 3.54v1.382c0 1.375.102 2.57.305 3.586.219 1.016.555 1.86 1.008 2.531a4.274 4.274 0 0 0 1.734 1.477c.719.328 1.571.492 2.555.492 1.125 0 2.07-.156 2.836-.469.766-.328 1.351-.82 1.758-1.476.406-.657.632-1.485.679-2.485ZM148.031 20.797v1.125c0 2.078-.312 3.945-.937 5.601-.61 1.657-1.477 3.07-2.602 4.243a11.366 11.366 0 0 1-4.031 2.695c-1.547.61-3.258.914-5.133.914s-3.594-.305-5.156-.914a11.64 11.64 0 0 1-4.031-2.695c-1.141-1.172-2.024-2.586-2.649-4.243-.625-1.656-.937-3.523-.937-5.601v-1.125c0-2.094.304-3.961.914-5.602.625-1.656 1.5-3.07 2.625-4.242a11.222 11.222 0 0 1 4.031-2.695c1.563-.625 3.281-.938 5.156-.938 1.875 0 3.586.313 5.133.938a11.186 11.186 0 0 1 4.055 2.695c1.14 1.172 2.015 2.586 2.625 4.242.625 1.64.937 3.508.937 5.602Zm-6.773 1.125V20.75c0-1.313-.141-2.469-.422-3.469-.266-1.015-.656-1.867-1.172-2.554a4.841 4.841 0 0 0-1.875-1.594c-.734-.375-1.57-.563-2.508-.563-.953 0-1.804.188-2.554.563-.735.36-1.352.89-1.852 1.594-.5.687-.883 1.539-1.148 2.554-.25 1-.375 2.157-.375 3.469v1.172c0 1.297.125 2.453.375 3.469.265 1.015.656 1.882 1.171 2.601a5.301 5.301 0 0 0 1.875 1.617c.75.36 1.602.54 2.555.54.938 0 1.774-.18 2.508-.54a5.099 5.099 0 0 0 1.852-1.617c.515-.719.906-1.586 1.171-2.601.266-1.016.399-2.172.399-3.47ZM167.156 27.688c0-.438-.086-.836-.258-1.196-.171-.375-.46-.71-.867-1.008-.39-.297-.922-.578-1.593-.843-.672-.266-1.508-.516-2.508-.75-1.719-.407-3.211-.852-4.477-1.336-1.25-.5-2.289-1.07-3.117-1.711a6.293 6.293 0 0 1-1.828-2.344c-.406-.906-.61-1.969-.61-3.188 0-1.171.258-2.25.774-3.234a7.485 7.485 0 0 1 2.18-2.531c.937-.703 2.046-1.25 3.328-1.64 1.281-.391 2.679-.587 4.195-.587 2.203 0 4.148.344 5.836 1.032 1.703.687 3.031 1.664 3.984 2.93.953 1.25 1.43 2.757 1.43 4.523h-6.75c0-.657-.18-1.258-.539-1.805-.344-.547-.844-.984-1.5-1.313-.656-.343-1.469-.515-2.438-.515-.937 0-1.71.148-2.32.445-.609.281-1.062.649-1.359 1.102-.281.437-.422.89-.422 1.36 0 .39.086.75.258 1.077.187.328.476.633.867.914.406.266.93.524 1.57.774.656.234 1.446.468 2.367.703 1.719.375 3.211.82 4.477 1.336 1.281.5 2.344 1.101 3.187 1.805a6.63 6.63 0 0 1 1.922 2.507c.422.953.633 2.055.633 3.305s-.258 2.367-.773 3.352c-.5.968-1.227 1.789-2.18 2.46-.937.672-2.07 1.188-3.398 1.547-1.313.344-2.782.516-4.407.516-1.453 0-2.882-.172-4.289-.516a12.824 12.824 0 0 1-3.82-1.593 8.563 8.563 0 0 1-2.742-2.813c-.672-1.14-1.008-2.508-1.008-4.101h6.773c0 .75.11 1.39.328 1.921.235.532.579.97 1.032 1.313.468.328 1.039.57 1.711.727.687.156 1.476.234 2.367.234 1 0 1.789-.14 2.367-.422.594-.297 1.008-.664 1.242-1.102.25-.437.375-.882.375-1.335ZM191.273.875h11.297c2.563 0 4.727.39 6.492 1.172 1.782.781 3.133 1.937 4.055 3.469.938 1.515 1.406 3.382 1.406 5.601 0 1.563-.32 2.992-.961 4.29-.624 1.28-1.531 2.374-2.718 3.28-1.172.891-2.578 1.555-4.219 1.993l-1.266.492h-10.617l-.047-3.68h8.016c1.625 0 2.977-.281 4.055-.844 1.078-.578 1.89-1.351 2.437-2.32.547-.969.82-2.039.82-3.21 0-1.313-.257-2.462-.773-3.446s-1.328-1.742-2.438-2.274c-1.093-.546-2.507-.82-4.242-.82h-6.773V35h-4.524V.875ZM211.219 35l-8.297-15.469 4.711-.023 8.414 15.21V35h-4.828ZM243.023 20.586v1.547c0 2.062-.281 3.914-.843 5.555-.563 1.625-1.368 3.015-2.414 4.171a10.531 10.531 0 0 1-3.774 2.625c-1.453.594-3.078.891-4.875.891-1.765 0-3.383-.297-4.851-.89a11.036 11.036 0 0 1-3.797-2.626c-1.063-1.156-1.883-2.547-2.461-4.172-.578-1.64-.867-3.492-.867-5.554v-1.547c0-2.063.289-3.906.867-5.531.578-1.64 1.39-3.04 2.437-4.196a10.42 10.42 0 0 1 3.774-2.625c1.469-.609 3.086-.914 4.851-.914 1.813 0 3.446.305 4.899.914a10.152 10.152 0 0 1 3.773 2.625c1.063 1.157 1.875 2.555 2.438 4.196.562 1.625.843 3.468.843 5.53Zm-4.289 1.547v-1.594c0-1.547-.172-2.914-.515-4.102-.344-1.187-.844-2.187-1.5-3a6.387 6.387 0 0 0-2.414-1.851c-.953-.422-2.032-.633-3.235-.633-1.156 0-2.203.211-3.14.633a6.627 6.627 0 0 0-2.414 1.851c-.657.813-1.164 1.813-1.524 3-.359 1.188-.539 2.555-.539 4.102v1.594c0 1.547.18 2.922.539 4.125.36 1.187.875 2.195 1.547 3.023a6.635 6.635 0 0 0 2.414 1.852c.953.422 2.008.633 3.164.633 1.219 0 2.297-.211 3.235-.633a6.425 6.425 0 0 0 2.39-1.852c.656-.828 1.149-1.836 1.477-3.023.343-1.203.515-2.578.515-4.125ZM259.219 22.555h-7.477l-.047-3.282h6.68c1.125 0 2.094-.148 2.906-.445.813-.312 1.438-.758 1.875-1.336.438-.594.656-1.312.656-2.156 0-.938-.218-1.703-.656-2.297-.437-.61-1.086-1.055-1.945-1.336-.844-.281-1.891-.422-3.141-.422h-5.179V35h-4.336V7.695h9.515c1.547 0 2.938.149 4.172.446 1.235.296 2.289.75 3.164 1.359a6.052 6.052 0 0 1 2.039 2.32c.469.938.703 2.047.703 3.328a5.51 5.51 0 0 1-.89 3.047c-.594.907-1.446 1.649-2.555 2.227-1.109.562-2.453.898-4.031 1.008l-1.453 1.125ZM259.008 35h-8.813l2.227-3.563h6.586c1.203 0 2.211-.171 3.023-.515.828-.344 1.453-.836 1.875-1.477.438-.64.656-1.406.656-2.297 0-.921-.187-1.726-.562-2.414-.359-.687-.938-1.218-1.734-1.593-.782-.391-1.797-.586-3.047-.586h-5.602l.024-3.282h7.523l.938 1.243c1.5.047 2.75.39 3.75 1.03 1.015.626 1.781 1.438 2.296 2.438.516.985.774 2.047.774 3.188 0 1.297-.234 2.437-.703 3.422a6.395 6.395 0 0 1-1.992 2.437c-.86.657-1.899 1.149-3.118 1.477-1.218.328-2.586.492-4.101.492ZM293.32 31.438V35h-15.562v-3.563h15.562ZM278.812 7.695V35h-4.335V7.695h4.335Zm12.469 11.414v3.54h-13.523v-3.54h13.523Zm1.899-11.414v3.586h-15.422V7.695h15.422ZM297.844 7.695h9.984c1.656 0 3.133.188 4.43.563 1.297.36 2.39.89 3.281 1.594a6.702 6.702 0 0 1 2.016 2.601c.468 1.031.703 2.219.703 3.563 0 1.343-.274 2.539-.82 3.586-.532 1.03-1.305 1.906-2.321 2.625-1 .703-2.195 1.242-3.586 1.617l-1.289.633h-9.234l-.047-3.563h6.984c1.328 0 2.43-.203 3.305-.61.875-.421 1.531-.984 1.969-1.687a4.433 4.433 0 0 0 .679-2.414c0-.984-.21-1.844-.632-2.578-.422-.734-1.086-1.305-1.993-1.71-.89-.423-2.039-.634-3.445-.634h-5.625V35h-4.359V7.695ZM314.836 35l-7.031-12.164 4.57-.023 7.125 11.953V35h-4.664ZM334.594 7.695V35h-4.313V7.695h4.313Zm9.351 0v3.586h-22.968V7.695h22.968ZM371.086 20.586v1.547c0 2.062-.281 3.914-.844 5.555-.562 1.625-1.367 3.015-2.414 4.171a10.536 10.536 0 0 1-3.773 2.625c-1.453.594-3.078.891-4.875.891-1.766 0-3.383-.297-4.852-.89a11.046 11.046 0 0 1-3.797-2.626c-1.062-1.156-1.883-2.547-2.461-4.172-.578-1.64-.867-3.492-.867-5.554v-1.547c0-2.063.289-3.906.867-5.531.578-1.64 1.391-3.04 2.438-4.196a10.408 10.408 0 0 1 3.773-2.625c1.469-.609 3.086-.914 4.852-.914 1.812 0 3.445.305 4.898.914a10.156 10.156 0 0 1 3.774 2.625c1.062 1.157 1.875 2.555 2.437 4.196.563 1.625.844 3.468.844 5.53Zm-4.289 1.547v-1.594c0-1.547-.172-2.914-.516-4.102-.343-1.187-.843-2.187-1.5-3a6.38 6.38 0 0 0-2.414-1.851c-.953-.422-2.031-.633-3.234-.633-1.156 0-2.203.211-3.141.633a6.636 6.636 0 0 0-2.414 1.851c-.656.813-1.164 1.813-1.523 3-.36 1.188-.539 2.555-.539 4.102v1.594c0 1.547.179 2.922.539 4.125.359 1.187.875 2.195 1.547 3.023a6.618 6.618 0 0 0 2.414 1.852c.953.422 2.007.633 3.164.633 1.218 0 2.297-.211 3.234-.633a6.428 6.428 0 0 0 2.391-1.852c.656-.828 1.148-1.836 1.476-3.023.344-1.203.516-2.578.516-4.125Z" fill="#141414"/></svg>
